img/tg.svg

<svg width="40" height="40" viewBox="0 0 40 40" fill="none" xmlns="http://www.w3.org/2000/svg">
<path d="M20 0C8.95097 0 0 8.95226 0 20C0 31.0477 8.95226 40 20 40C31.049 40 40 31.0477 40 20C40 8.95226 31.0477 0 20 0ZM29.8232 13.7019L26.5406 29.1703C26.2981 30.2671 25.6452 30.5329 24.7342 30.0168L19.7342 26.3316L17.3226 28.6542C17.0568 28.92 16.831 29.1458 16.3148 29.1458L16.6697 24.0568L25.9355 15.6852C26.3394 15.3303 25.8465 15.129 25.3135 15.4839L13.8619 22.6929L8.92645 21.1523C7.85419 20.8142 7.82968 20.08 9.15226 19.5639L28.4348 12.1277C29.3303 11.8052 30.1123 12.3458 29.8219 13.7006L29.8232 13.7019Z" fill="#03d4d9"/>
</svg>

<svg width="40" height="40" fill="none" xmlns="http://www.w3.org/2000/svg"><path d="M20 0C8.951 0 0 8.952 0 20s8.952 20 20 20c11.049 0 20-8.952 20-20S31.048 0 20 0Zm9.823 13.702L26.541 29.17c-.243 1.097-.896 1.363-1.807.847l-5-3.685-2.411 2.322c-.266.266-.492.492-1.008.492l.355-5.09 9.265-8.37c.404-.356-.088-.557-.621-.202l-11.452 7.209-4.936-1.54c-1.072-.339-1.096-1.073.226-1.59l19.283-7.435c.895-.323 1.677.218 1.387 1.573h.001Z" fill="#03d4d9"/></svg>
